src/shared/assets/icons/ic-edit.svg

<svg width="16" height="16" viewBox="0 0 16 16" fill="none" xmlns="http://www.w3.org/2000/svg">
<path d="M10.667 1.34131L12.667 3.34131L11.1423 4.86664L9.14233 2.86664L10.667 1.34131ZM2.66699 9.33331V11.3333H4.66699L10.1997 5.80864L8.19966 3.80864L2.66699 9.33331ZM2.66699 13.3333H13.3337V14.6666H2.66699V13.3333Z" fill="white"/>
</svg>

<svg xmlns="http://www.w3.org/2000/svg" fill="none" viewBox="0 0 16 16"><path fill="#fff" d="m10.667 1.341 2 2-1.525 1.526-2-2zm-8 7.992v2h2L10.2 5.81l-2-2zm0 4h10.667v1.334H2.667z"/></svg>
